src/lib/packages/icons/src/assets/filled/id-badge.svg

<svg xmlns="http://www.w3.org/2000/svg" width="24" height="24" fill="none"><path fill="currentColor" d="M17 3H7C5 3 4 4 4 6v12c0 2 1 3 3 3h10c2 0 3-1 3-3V6c0-2-1-3-3-3Zm-6.5 2.25h3a.75.75 0 0 1 0 1.5h-3a.75.75 0 0 1 0-1.5Zm3.655 5.9c0 1.186-.964 2.15-2.15 2.15a2.152 2.152 0 0 1-2.15-2.15c0-1.186.964-2.15 2.15-2.15s2.15.964 2.15 2.15Zm1.344 6.35a.5.5 0 0 1-.5.5h-6a.5.5 0 0 1-.5-.5v-.303c0-1.34.981-2.697 2.858-2.697h1.284c1.876 0 2.858 1.356 2.858 2.697v.303Z"/></svg>

<svg width="24" height="24" viewBox="0 0 24 24" fill="none" xmlns="http://www.w3.org/2000/svg">
<path d="M17 3H7C5 3 4 4 4 6V18C4 20 5 21 7 21H17C19 21 20 20 20 18V6C20 4 19 3 17 3ZM10.5 5.25H13.5C13.914 5.25 14.25 5.586 14.25 6C14.25 6.414 13.914 6.75 13.5 6.75H10.5C10.086 6.75 9.75 6.414 9.75 6C9.75 5.586 10.086 5.25 10.5 5.25ZM14.155 11.15C14.155 12.336 13.191 13.3 12.005 13.3C10.819 13.3 9.85498 12.336 9.85498 11.15C9.85498 9.96402 10.819 9 12.005 9C13.191 9 14.155 9.96402 14.155 11.15ZM15.499 17.5C15.499 17.776 15.275 18 14.999 18H8.99902C8.72302 18 8.49902 17.776 8.49902 17.5V17.197C8.49902 15.857 9.47999 14.5 11.357 14.5H12.641C14.517 14.5 15.499 15.856 15.499 17.197V17.5Z" fill="currentColor"/>
</svg>
